!!!OTL-incipit: EDELE DEUTSCHE IHR HABET EMPFANGEN
!!!ARE: Europa, Mitteleuropa, Deutschland
!!!SCT: Z0194
!!!YEM: Copyright 1995, estate of Helmut Schaffrath.
**kern	**text
*ICvox	*
!! Mixed meters:  4/4; 3/4
*M4/4	*
*met(c)	*
*k[]	*
*C:	*
!LO:TX:a:t=Altdeutſch.	!
{4g	E-
8a	-de-
8b/	-le
=1	=1
4cc	Deutſche,
8cc	.
8cc	ihr
4dd	ha-
8dd	-bet
8dd	em-
=2	=2
4ee	-pfan-
4cc}	-gen
{4ee	treff-
8dd	-li-
8dd	-che
=3	=3
4cc	Ga-
8b/	-ben
8b/	und
4a	himmli-
8a	.
8a	-ſchen
=4	=4
2g}	Preis,
{4cc	Mei-
8cc	-ſter
8g	ʒu
=5	=5
4a	blei-
8g	-ben
8g	und
4cc	herr-
8dd	-lich
8cc	ʒu
=6	=6
4ee	pran-
4dd}	-gen
{4cc	ü-
8dd	-ber
8ee	die
=7	=7
4dd	Völ-
8cc	-ker
8b	auf
8ddL	man-
8ccJ	.
8b/	-cher-
8a	-lei
=8:|:	=8:|:
*M3/4	*
4g	Weiſ.
4r}	.
{8bL	Euch
8ccJ	.
=9	=9
4dd	mußten
4dd	.
4dd	ge-
=10	=10
4b	-ra-
4g}	-then
{8gL	die
8aJ	.
=11	=11
4b	männli-
4b	.
4b	-chen
=12	=12
4g	Tha-
4e}	-ten
{4g	im
=13	=13
4.cc	mäch-
8cc	-ti-
4ee	-gen
=14	=14
4dd	Krieg;
4r}	.
{4g	die
=15	=15
4a	Fein-
4a	-de
4a	ʒu
=16	=16
4b	ſchla-
4b}	-gen,
{4b	ʒu
=17	=17
4cc	töd-
4cc	-ten,
4cc	ʒu
=18	=18
4dd	ja-
4dd}	-gen,
{4g	daß
=19	=19
4ee	Al-
4dd	-les
4ee	im
=20	=20
4ff	Lan-
4ee}	-de
{4dd	ſich
=21	=21
4.cc	freu-
8ee	-et
4b	im
=22	=22
2cc}	Sieg.
==	==
!!!AGN: Soldaten -, Jaeger - Lied, nationalistische Selbstdefinition
!!!ONB: ESAC (Essen Associative Code) Database: ZUCCAL
!!!AMT: irregular
!!!AIN: vox
!!!EED: Helmut Schaffrath
!!!EEV: 1.0
!!!GTL: III. Soldaten-, Jaeger-, Schiffer-, Fuhrmanns- und Handwerks-Lieder.
!!!URL-scan: https://www.digitale-sammlungen.de/de/view/bsb11160571?page=360
!!!ENC: Anna Maria Matuszewska
!!!EEV: 2025/01/28
*-	*-
